!!!!SEGMENT: pl-kk--kk-i-26--003_anonim--missa-sanctus.krn
!!!cenid: 17xx:2217
!!!COM: Anonim
!!!COM-rismid: pe30004985
!!!CDT:
!!!CNT:
!!!OPR: Missa
!!!OTL: Sanctus
!!!OMV: 003
!!!PDT:
!!!AGN: Sacred; Mass
!!!SMS-siglum: PL-Kk
!!!SMS-shelfmark: Kk.I.26
!!!SMS-shelfwork: 001-003 M
!!!SMS-variant:
!!!SMS-altvar:
!!!NIFC-rismid: 1001156019
!!!URL-scan: http://repozytorium.nifc.pl/skany/pl-kk-nut--i-26
!!!ONB-nifc: UWAGA: części Mszy: 1. Kyrie, 2. Et in terra, 3. Sanctus, 4. Agnus Dei.
!!!key:
**kern	**text	**kern	**text	**kern	**text	**kern	**kern	**text	**kern	**text
*part6	*part6	*part5	*part5	*part4	*part4	*part3	*part2	*part2	*part1	*part1
*staff6	*staff6	*staff5	*staff5	*staff4	*staff4	*staff3	*staff2	*staff2	*staff1	*staff1
*Iempty	*	*Iempty	*	*Itenor	*	*Itenor	*Itenor	*	*Ialto	*
*I"Baſso Ripieno.	*	*I"Baſso.	*	*I"Tenore 2do.	*	*I"Tenore I. Uagante ad Libitum	*I"Tenore Imo.	*	*I"Alto.	*
*I'B rip	*	*I'B	*	*I'T 2	*	*I'T 1 ad lib.	*I'T 1	*	*I'A	*
*clefF4	*	*clefF4	*	*clefC4	*	*clefC4	*clefC4	*	*clefC3	*
*k[]	*	*k[]	*	*k[]	*	*k[]	*k[]	*	*k[]	*
*a:	*	*a:	*	*a:	*	*a:	*a:	*	*a:	*
*M2/1	*	*M2/1	*	*M2/1	*	*M2/1	*M2/1	*	*M2/1	*
*met(C|)	*	*met(C|)	*	*met(C|)	*	*met(C|)	*met(C|)	*	*met(C|)	*
*all\right	*	*all\right	*	*all\right	*	*	*all\right	*	*all\right	*
=1-	=1-	=1-	=1-	=1-	=1-	=1-	=1-	=1-	=1-	=1-
*	*	*	*	*	*	*	*2\right	*	*	*
!LO:TX:t=P:problem:kreska pseudotaktowa	!	!LO:TX:t=P:problem:kreska pseudotaktowa	!	!	!	!	!	!	!LO:TX:t=P:problem:kreska pseudotaktowa	!
1r	.	1r	.	2r	.	0ryy	2e\	San-	1r	.
*	*	*	*	*2\right	*	*	*	*	*	*
!	!	!	!	!LO:TX:t=P:problem:kreska pseudotaktowa	!	!	!LO:TX:t=P:problem:kreska pseudotaktowa	!	!	!
.	.	.	.	2e\	San-	.	[<2A\	.	.	.
!	!	!	!	!	!	!	!LO:N:xstem:cue	!	!	!
1A	San-	1A	San-	2.A\	.	.	4A]	.	2r	.
.	.	.	.	.	.	.	4B\	.	.	.
*	*	*	*	*	*	*	*	*	*2\right	*
!	!	!	!	!	!	!	!LO:TX:t=P:problem:kreska pseudotaktowa	!	!	!
.	.	.	.	.	.	.	[<2c\	.	2e\	San-
!	!	!	!	!LO:TX:t=P:problem:kreska pseudotaktowa	!	!	!	!	!	!
.	.	.	.	4B\	.	.	.	.	.	.
=2-	=2-	=2-	=2-	=2-	=2-	=2-	=2-	=2-	=2-	=2-
!	!	!	!	!	!	!	!LO:N:xstem:cue	!	!	!
2.AA/	.	2.AA/	.	2.c\	.	0ryy	4c]	.	4A/	.
.	.	.	.	.	.	.	4d\	.	4B/	.
.	.	.	.	.	.	.	4e\	.	4c/	.
!LO:TX:t=P:problem:kreska pseudotaktowa	!	!LO:TX:t=P:problem:kreska pseudotaktowa	!	!LO:TX:t=P:problem:kreska pseudotaktowa	!	!	!LO:TX:t=P:problem:kreska pseudotaktowa	!	!LO:TX:t=P:problem:kreska pseudotaktowa	!
4BB/	.	4BB/	.	4d\	.	.	4d\	.	4d/	.
2C/	.	2C/	.	2e\	.	.	4c\	.	2e\	.
.	.	.	.	.	.	.	4B\	.	.	.
*2\right	*	*	*	*	*	*	*	*	*	*
!	!	!	!	!	!	!	!LO:TX:t=P:problem:kreska pseudotaktowa	!	!	!
2D\	.	2D/	.	4f\	.	.	[<2A\	.	4d\	.
!	!	!	!	!LO:TX:t=P:problem:kreska pseudotaktowa	!	!	!	!	!LO:TX:t=P:problem:kreska pseudotaktowa	!
.	.	.	.	4e\	.	.	.	.	4e\	.
=3-	=3-	=3-	=3-	=3-	=3-	=3-	=3-	=3-	=3-	=3-
!LO:TX:t=P:problem:kreska pseudotaktowa	!	!LO:TX:t=P:problem:kreska pseudotaktowa	!	!	!	!	!LO:N:xstem:cue	!	!	!
1BB	.	1BB	.	4d\	.	0ryy	4A]	.	4f\	.
.	.	.	.	4c\	.	.	8G#X/L	.	4e\	.
.	.	.	.	.	.	.	8F/J	.	.	.
!	!	!	!	!LO:TX:t=P:problem:kreska pseudotaktowa	!	!	!LO:TX:t=P:problem:kreska pseudotaktowa	!	!LO:TX:t=P:problem:kreska pseudotaktowa	!
.	.	.	.	2d\	.	.	2G#X/	.	2d\	.
!	!	!	!	!	!	!	!LO:TX:t=P:problem:oddech jako rozdzielacz słów:global	!	!	!
2.AA/	.	2.AA/	.	2.c\	.	.	2A,<\	-ctus	4e\	.
.	.	.	.	.	.	.	.	.	2a\	.
!	!	!	!	!	!	!	!LO:TX:t=P:problem:kreska pseudotaktowa	!	!	!
.	.	.	.	.	.	.	[<2E/	San-	.	.
!LO:TX:t=P:problem:kreska pseudotaktowa	!	!LO:TX:t=P:problem:kreska pseudotaktowa	!	!LO:TX:t=P:problem:kreska pseudotaktowa	!	!	!	!	!	!
4BB/	.	4BB/	.	4d\	.	.	.	.	8g\L	.
!	!	!	!	!	!	!	!	!	!LO:TX:t=P:problem:kreska pseudotaktowa	!
.	.	.	.	.	.	.	.	.	8f\J	.
=4-	=4-	=4-	=4-	=4-	=4-	=4-	=4-	=4-	=4-	=4-
!	!	!	!	!	!	!	!LO:N:xstem:cue	!	!	!
2.C/	.	2.C/	.	2.e\	.	0ryy	4E]	.	2.e\	.
.	.	.	.	.	.	.	4F/	.	.	.
!	!	!	!	!	!	!	!LO:TX:t=P:problem:kreska pseudotaktowa	!	!	!
.	.	.	.	.	.	.	[<2Gny/	.	.	.
!LO:TX:t=P:problem:kreska pseudotaktowa	!	!LO:TX:t=P:problem:kreska pseudotaktowa	!	!LO:TX:t=P:problem:kreska pseudotaktowa	!	!	!	!	!LO:TX:t=P:problem:kreska pseudotaktowa	!
4D/	.	4D/	.	4d\	.	.	.	.	4f\	.
*	*	*2\right	*	*	*	*	*	*	*	*
!	!	!	!	!	!	!	!	!	!LO:TX:t=P:problem:oddech jako rozdzielacz słów:global	!
2E\	.	2E\	.	1.c	.	.	2G/]	.	2g,<\	-ctus
2F\	.	2F\	.	.	.	.	2A\	.	4f\	San-
!	!	!	!	!	!	!	!	!	!LO:TX:t=P:problem:kreska pseudotaktowa	!
.	.	.	.	.	.	.	.	.	4g\	.
=5-	=5-	=5-	=5-	=5-	=5-	=5-	=5-	=5-	=5-	=5-
!LO:TX:t=P:problem:kreska pseudotaktowa	!	!LO:TX:t=P:problem:kreska pseudotaktowa	!	!	!	!	!LO:TX:t=P:problem:kreska pseudotaktowa	!	!	!
!LO:TX:t=P:problem:oddech jako rozdzielacz słów:global	!	!LO:TX:t=P:problem:oddech jako rozdzielacz słów:global	!	!	!	!	!	!	!	!
1D,<	-ctus	1D,<	-ctus	.	.	0ryy	1F	.	2a\	.
!	!	!	!	!LO:TX:t=P:problem:kreska pseudotaktowa	!	!	!	!	!LO:TX:t=P:problem:kreska pseudotaktowa	!
.	.	.	.	2B\	.	.	.	.	2fn\	.
!	!	!	!	!LO:TX:t=P:problem:kreska pseudotaktowa	!	!	!	!	!	!
!	!	!	!	!LO:TX:t=P:problem:oddech jako rozdzielacz słów:global	!	!	!	!	!	!
4C/	San-	4C/	San-	1c,<	-ctus	.	2E,</	-ctus	1g	.
4D/	.	4D/	.	.	.	.	.	.	.	.
!	!	!	!	!	!	!	!LO:TX:t=P:problem:kreska pseudotaktowa	!	!	!
4E/	.	4E/	.	.	.	.	2e\	San-	.	.
!LO:TX:t=P:problem:kreska pseudotaktowa	!	!LO:TX:t=P:problem:kreska pseudotaktowa	!	!	!	!	!	!	!	!
4C/	.	4C/	.	.	.	.	.	.	.	.
=6-	=6-	=6-	=6-	=6-	=6-	=6-	=6-	=6-	=6-	=6-
(4F\	.	4F\	.	2.c\	San-	0ryy	2.A\	.	4f,<\	-ctus
4E\	.	4E\	.	.	.	.	.	.	2c/	San-
4F\	.	4F\	.	.	.	.	.	.	.	.
!LO:TX:t=P:problem:kreska pseudotaktowa	!	!LO:TX:t=P:problem:kreska pseudotaktowa	!	!LO:TX:t=P:problem:kreska pseudotaktowa	!	!	!LO:TX:t=P:problem:kreska pseudotaktowa	!	!LO:TX:t=P:problem:kreska pseudotaktowa	!
4G\)	.	4G\	.	4B\	.	.	4B\	.	4B/	.
2A\	.	2A\	.	4A/	.	.	2c\	.	2e\	.
.	.	.	.	4G/	.	.	.	.	.	.
!LO:TX:t=P:problem:kreska pseudotaktowa	!	!	!	!	!	!	!LO:TX:t=P:problem:kreska pseudotaktowa	!	!	!
2F\	.	2F\	.	1A\	.	.	2d\	.	4f\	.
.	.	.	.	.	.	.	.	.	4d\	.
=7-	=7-	=7-	=7-	=7-	=7-	=7-	=7-	=7-	=7-	=7-
!	!	!	!	!	!	!	!LO:TX:t=P:problem:kreska pseudotaktowa	!	!LO:TX:t=P:problem:kreska pseudotaktowa	!
!	!	!	!	!	!	!	!LO:LB:g=original	!	!	!
1E	.	1E	.	.	.	0ryy	1B	.	0e,<	-ctus
!	!	!	!	!LO:TX:t=P:problem:kreska pseudotaktowa	!	!	!	!	!	!
.	.	.	.	2G#X/	.	.	.	.	.	.
!LO:TX:t=P:problem:kreska pseudotaktowa	!	!LO:TX:t=P:problem:kreska pseudotaktowa	!	!	!	!	!LO:TX:t=P:problem:kreska pseudotaktowa	!	!	!
1AA	-ctus	1AA	-ctus	2A,</	-ctus	.	1c#X,<	-ctus	.	.
.	.	.	.	2.e\	Do-	.	.	.	.	.
=8-	=8-	=8-	=8-	=8-	=8-	=8-	=8-	=8-	=8-	=8-
!LO:LB:g=original	!	!	!	!	!	!	!	!	!LO:LB:g=original	!
2r	.	2r	.	.	.	0ryy	0r	.	2r	.
.	.	.	.	4e\	-mi-	.	.	.	.	.
!	!	!	!	!LO:TX:t=P:problem:kreska pseudotaktowa	!	!	!	!	!LO:TX:t=P:problem:kreska pseudotaktowa	!
2.A\	Do-	2.A\	Do-	2e\	-n(us)	.	.	.	[<2e\	Do-
!	!	!	!	!LO:LB:g=original	!	!	!	!	!LO:N:xstem:cue	!
.	.	.	.	2.A\	DE-	.	.	.	4e]	.
4A\	-mi-	4A\	-mi-	.	.	.	.	.	4e\	-mi-
!LO:TX:t=P:problem:kreska pseudotaktowa	!	!LO:SIC:v:t=custos E	!	!	!	!	!	!	!	!
!	!	!LO:TX:t=P:problem:kreska pseudotaktowa	!	!	!	!	!	!	!	!
2A\	-n(us)	2A\	-n(us)	.	.	.	.	.	4e\	-nus
!	!	!	!	!LO:TX:t=P:problem:kreska pseudotaktowa	!	!	!	!	!LO:TX:t=P:problem:kreska pseudotaktowa	!
.	.	.	.	4B\	.	.	.	.	4f\	.
=9-	=9-	=9-	=9-	=9-	=9-	=9-	=9-	=9-	=9-	=9-
!	!	!LO:LB:g=original	!	!	!	!	!	!	!	!
2.E\	De-	2.E\	De-	4c\	.	0ryy	2r	.	2.g\	De-
.	.	.	.	4d\	.	.	.	.	.	.
!	!	!	!	!	!	!	!LO:LB:g=original	!	!	!
!	!	!	!	!	!	!	!LO:TX:t=P:problem:kreska pseudotaktowa	!	!	!
.	.	.	.	1B\	.	.	[<2e\	Do-	.	.
!LO:TX:t=P:problem:kreska pseudotaktowa	!	!LO:TX:t=P:problem:kreska pseudotaktowa	!	!	!	!	!	!	!	!
4F\	.	4F\	.	.	.	.	.	.	8f#X\L	.
!	!	!	!	!	!	!	!	!	!LO:TX:t=P:problem:kreska pseudotaktowa	!
.	.	.	.	.	.	.	.	.	8e\J	.
!	!	!	!	!	!	!	!LO:N:xstem:cue	!	!	!
2G#X\	.	2G#X\	.	.	.	.	4e]	.	2d\	.
.	.	.	.	.	.	.	4e\	-mi-	.	.
!	!	!LO:TX:t=P:problem:kreska pseudotaktowa	!	!LO:TX:t=P:problem:kreska pseudotaktowa	!	!	!LO:TX:t=P:problem:kreska pseudotaktowa	!	!LO:TX:t=P:problem:kreska pseudotaktowa	!
2A\	.	2A\	.	2c\	-US	.	2e\	-nus	2cn/	-us
=10-	=10-	=10-	=10-	=10-	=10-	=10-	=10-	=10-	=10-	=10-
!LO:TX:t=P:problem:kreska pseudotaktowa	!	!LO:TX:t=P:problem:kreska pseudotaktowa	!	!	!	!	!	!	!	!
1F	-us	1F,<	-us	2f\	De-	0ryy	(4A\	De-	4.a\	Sab-
.	.	.	.	.	.	.	4B\	.	.	.
.	.	.	.	.	.	.	.	.	8g\	.
!	!	!	!	!LO:TX:t=P:problem:kreska pseudotaktowa	!	!	!	!	!LO:TX:t=P:problem:kreska pseudotaktowa	!
.	.	.	.	2f\	-us	.	4cny\	.	2fny\	.
!	!	!	!	!	!	!	!LO:TX:t=P:problem:kreska pseudotaktowa	!	!	!
.	.	.	.	.	.	.	4d\)	.	.	.
2.Gny\	Sab-	2.Gny\	Sab-	4e\	Sa-	.	8B\	.	2.g\	.
.	.	.	.	.	.	.	8G/	-us	.	.
.	.	.	.	8d\L	.	.	2c\	Sab-	.	.
.	.	.	.	8c\J	.	.	.	.	.	.
.	.	.	.	4d\	.	.	.	.	.	.
4G\	-ba-	4G\	-ba-	4d\	-ba-	.	4B\	-ba-	4g\	-ba-
=11-	=11-	=11-	=11-	=11-	=11-	=11-	=11-	=11-	=11-	=11-
*M2/1	*	*M2/1	*	*M2/1	*	*	*M2/1	*	*M2/1	*
*met(C)	*	*met(C)	*	*met(C)	*	*	*met(C)	*	*met(C)	*
2C,</	-oth.	2C,</	-oth.	2e\	-oth.	0ryy	4c,<\	-oth.	2g\	-oth.
.	.	.	.	.	.	.	4c\	Ple-	.	.
!LO:TX:t=P:problem:kreska pseudotaktowa	!	!LO:TX:t=P:problem:kreska pseudotaktowa	!	!LO:TX:t=P:problem:kreska pseudotaktowa	!	!	!	!	!LO:TX:t=P:problem:kreska pseudotaktowa	!
2G\	Ple-	2G\	Ple-	2r	.	.	4B\	-ni-	2r	.
!	!	!	!	!	!	!	!LO:TX:t=P:problem:kreska pseudotaktowa	!	!	!
.	.	.	.	.	.	.	4G/	-sunt	.	.
!	!	!	!	!LO:TX:t=P:problem:kreska pseudotaktowa	!	!	!	!	!	!
4Fn\	-ni-	4Fn\	-ni-	0r	.	.	(8A\L	cae-	2r	.
.	.	.	.	.	.	.	8G\	.	.	.
4D\	-sunt	4D\	-sunt	.	.	.	8A\	.	.	.
.	.	.	.	.	.	.	8B\J)	.	.	.
!	!	!	!	!	!	!	!LO:TX:t=P:problem:kreska pseudotaktowa	!	!LO:TX:t=P:problem:kreska pseudotaktowa	!
(8E\L	cae-	(8E\L	cae-	.	.	.	2c\	.	2g\	Ple-
8D\	.	8D\	.	.	.	.	.	.	.	.
8E\	.	8E\	.	.	.	.	.	.	.	.
!LO:TX:t=P:problem:kreska pseudotaktowa	!	!LO:TX:t=P:problem:kreska pseudotaktowa	!	!	!	!	!	!	!	!
8F\J)	.	8F\J)	.	.	.	.	.	.	.	.
=12-	=12-	=12-	=12-	=12-	=12-	=12-	=12-	=12-	=12-	=12-
2G\	.	2G\	.	.	.	0ryy	4B,<\	-li	4d,<\	-ni
.	.	.	.	.	.	.	4G/	et	(8d\L	sunt
.	.	.	.	.	.	.	.	.	8e\J)	.
!	!	!	!	!	!	!	!LO:TX:t=P:problem:kreska pseudotaktowa	!	!	!
4F,<\	-li	4F,<\	-li	.	.	.	2d\	Ter-	8f\L	cae-
.	.	.	.	.	.	.	.	.	8g\J	.
!LO:TX:t=P:problem:kreska pseudotaktowa	!	!LO:TX:t=P:problem:kreska pseudotaktowa	!	!	!	!	!	!	!LO:TX:t=P:problem:kreska pseudotaktowa	!
4D/	et	4D\	et	.	.	.	.	.	[<4a\	.
8A\L	ter-	8A\L	ter-	2e\	Ple-	.	2c\	.	8a\L]	.
8E\J	.	8E\J	.	.	.	.	.	.	8g\J	.
2A\	.	2A\	.	.	.	.	.	.	4f\	.
!	!	!	!	!	!	!	!LO:TX:t=P:problem:kreska pseudotaktowa	!	!LO:TX:t=P:problem:kreska pseudotaktowa	!
.	.	.	.	4d\	-ni-	.	2B\	.	2e\	.
!LO:SIC:v:t=custos A	!	!	!	!	!	!	!	!	!	!
!LO:TX:t=P:problem:kreska pseudotaktowa	!	!LO:TX:t=P:problem:kreska pseudotaktowa	!	!LO:TX:t=P:problem:kreska pseudotaktowa	!	!	!	!	!	!
4G#X\	.	4G#X\	.	4B\	-sun	.	.	.	.	.
=13-	=13-	=13-	=13-	=13-	=13-	=13-	=13-	=13-	=13-	=13-
!LO:PB:g=original	!	!	!	!	!	!	!	!	!	!
4A,<\	-ra	4A,<\	-ra	(8c\L	cae-	0ryy	2A\	-ra	4e,<\	-li
.	.	.	.	8B\	.	.	.	.	.	.
4A\	Ple-	4A\	Ple-	8c\	.	.	.	.	8e\L	Ple-
!	!	!	!	!	!	!	!	!	!LO:SIC:v:t=custos g	!
.	.	.	.	8d\J)	.	.	.	.	8f\J	.
!	!	!	!	!LO:TX:t=P:problem:kreska pseudotaktowa	!	!	!LO:TX:t=P:problem:kreska pseudotaktowa	!	!LO:LB:g=original	!
4Gn\	-ni	4Gn\	-ni	2e\	.	.	2r	.	4g,<\	-ni-
!LO:TX:t=P:problem:kreska pseudotaktowa	!	!LO:TX:t=P:problem:kreska pseudotaktowa	!	!	!	!	!	!	!LO:TX:t=P:problem:kreska pseudotaktowa	!
4E\	sunt	4E\	sunt	.	.	.	.	.	4g\	-sunt
!	!	!	!	!	!	!	!LO:LB:g=original	!	!	!
(8F\L	cae-	(8F\L	cae-	2A/	-li	.	2d\	Ple-	8a\L	cae-
8E\	.	8E\	.	.	.	.	.	.	(8g\	.
8F\)	.	8F\)	.	.	.	.	.	.	8f\	.
8G\J	.	8G\J	.	.	.	.	.	.	8d\J)	.
!LO:TX:t=P:problem:kreska pseudotaktowa	!	!LO:TX:t=P:problem:kreska pseudotaktowa	!	!LO:TX:t=P:problem:kreska pseudotaktowa	!	!	!	!	!	!
2A\	.	2A\	.	2r	.	.	4c\	-ni-	4a\	.
!	!	!	!	!	!	!	!LO:TX:t=P:problem:kreska pseudotaktowa	!	!LO:TX:t=P:problem:kreska pseudotaktowa	!
.	.	.	.	.	.	.	4A\	-sunt	4e\	.
=14-	=14-	=14-	=14-	=14-	=14-	=14-	=14-	=14-	=14-	=14-
2G\	-li	2G\	.	2r	.	0ryy	(8B\L	cae-	4g\	.
.	.	.	.	.	.	.	8A\	.	.	.
.	.	.	.	.	.	.	8B\	.	8d,<\	-li
.	.	.	.	.	.	.	8c\J)	.	8e\	et
!	!	!LO:SIC:v:t=custos E	!	!LO:TX:t=P:problem:kreska pseudotaktowa	!	!	!	!	!LO:TX:t=P:problem:kreska pseudotaktowa	!
!	!	!LO:TX:t=P:problem:kreska pseudotaktowa	!	!	!	!	!	!	!	!
2F\	et	2F\	.	2A\	Ple-	.	8d\	.	2fn\	Ter-
.	.	.	.	.	.	.	8A\	.	.	.
!	!	!	!	!	!	!	!LO:TX:t=P:problem:kreska pseudotaktowa	!	!	!
.	.	.	.	.	.	.	[<4d\	.	.	.
!	!	!LO:LB:g=original	!	!	!	!	!	!	!	!
2E\	ter-	2E\	.	4Gny/	-ni-	.	4d\]	.	2g\	-ra
.	.	.	.	4E/	-sunt	.	4c#X\	.	.	.
!	!	!	!	!	!	!	!LO:TX:t=P:problem:kreska pseudotaktowa	!	!LO:TX:t=P:problem:kreska pseudotaktowa	!
4D,</	-ra	4D,</	-li	8F/L	cae-	.	2d\	-li	2r	.
.	.	.	.	8G/	.	.	.	.	.	.
!LO:TX:t=P:problem:kreska pseudotaktowa	!	!LO:TX:t=P:problem:kreska pseudotaktowa	!	!	!	!	!	!	!	!
4D/	Ple-	4D/	et	8A/	.	.	.	.	.	.
!	!	!	!	!LO:TX:t=P:problem:kreska pseudotaktowa	!	!	!	!	!	!
.	.	.	.	8B/J	.	.	.	.	.	.
=15-	=15-	=15-	=15-	=15-	=15-	=15-	=15-	=15-	=15-	=15-
!	!	!	!	!	!	!	!	!	!LO:TX:t=P:problem:kreska pseudotaktowa	!
4Cn/	-ni	4Cn/	ter-	2c\	.	0ryy	4r	.	1r	.
4AA/	sunt	4AA/	.	.	.	.	4A/	Ple-	.	.
!	!	!	!	!LO:TX:t=P:problem:kreska pseudotaktowa	!	!	!	!	!	!
8BB/L	Cae-	8BB/L	.	2B\	-li	.	4.G/	-ni-	.	.
8AA/	.	8AA/	.	.	.	.	.	.	.	.
8BB/	.	8BB/	.	.	.	.	.	.	.	.
!LO:TX:t=P:problem:kreska pseudotaktowa	!	!LO:TX:t=P:problem:kreska pseudotaktowa	!	!	!	!	!LO:TX:t=P:problem:kreska pseudotaktowa	!	!	!
8C/J	.	8C/J	.	.	.	.	8E/	-sunt	.	.
!	!	!	!	!LO:LB:g=original	!	!	!	!	!	!
2D\	.	2D/	.	4r	.	.	8F/L	cae-	4r	.
.	.	.	.	.	.	.	8E/	.	.	.
*	*	*	*	*	*ij	*	*	*	*	*
.	.	.	.	4d\	Ple-	.	8F/	.	4f\	Ple-
.	.	.	.	.	.	.	8G/J	.	.	.
!LO:TX:t=P:problem:kreska pseudotaktowa	!	!LO:TX:t=P:problem:kreska pseudotaktowa	!	!	!	!	!LO:TX:t=P:problem:kreska pseudotaktowa	!	!	!
2AA/	-li	2AA/	-ra	4c\	-ni-	.	2A\	.	4e\	-ni-
!	!	!	!	!LO:TX:t=P:problem:kreska pseudotaktowa	!	!	!	!	!LO:TX:t=P:problem:kreska pseudotaktowa	!
.	.	.	.	4A\	-sunt	.	.	.	4c\	-sunt
=16-	=16-	=16-	=16-	=16-	=16-	=16-	=16-	=16-	=16-	=16-
4r	.	4r	.	2B\	cae-	0ryy	4G,</	-li	(4d\	cae-
*	*ij	*	*	*	*	*	*	*	*	*
4E\	Ple-	4E\	Ple-	.	.	.	4g\	Cae-	4e\	.
!	!	!	!	!LO:TX:t=P:problem:kreska pseudotaktowa	!	!	!	!	!	!
4D/	-ni	4D/	-ni-	2B\	-li	.	4f#X\	-li	4f#X\)	.
*	*	*	*	*	*Xij	*	*	*	*	*
!LO:TX:t=P:problem:kreska pseudotaktowa	!	!LO:TX:t=P:problem:kreska pseudotaktowa	!	!	!	!	!LO:TX:t=P:problem:kreska pseudotaktowa	!	!LO:TX:t=P:problem:kreska pseudotaktowa	!
4BB/	sunt	4BB/	-sunt	.	.	.	4d\	et	4g\	.
!	!	!	!	!	!	!	!LO:TX:t=P:problem:kreska pseudotaktowa	!	!LO:TX:t=P:problem:kreska pseudotaktowa	!
8C/L	cae-	8C/L	cae-	4r	.	.	1e	ter-	1gT<	.
8BB/	.	8BB/	.	.	.	.	.	.	.	.
8C/	.	8C/	.	4c\	Ple-	.	.	.	.	.
8D/J	.	8D/J	.	.	.	.	.	.	.	.
!LO:TX:t=P:problem:kreska pseudotaktowa	!	!LO:TX:t=P:problem:kreska pseudotaktowa	!	!	!	!	!	!	!	!
2E\	.	2E\	.	4B\	-ni-	.	.	.	.	.
!	!	!	!	!LO:TX:t=P:problem:kreska pseudotaktowa	!	!	!	!	!	!
.	.	.	.	4G/	-sunt	.	.	.	.	.
=17-	=17-	=17-	=17-	=17-	=17-	=17-	=17-	=17-	=17-	=17-
2D,<\	-li	2D,<\	-li	8A\L	cae-	0ryy	4fn,<\	-ra	2fn\	.
*	*Xij	*	*	*	*	*	*	*	*	*
.	.	.	.	8G\	.	.	.	.	.	.
.	.	.	.	8A\	.	.	4f\	Ple-	.	.
.	.	.	.	8B\J	.	.	.	.	.	.
!LO:TX:t=P:problem:kreska pseudotaktowa	!	!LO:TX:t=P:problem:kreska pseudotaktowa	!	!	!	!	!	!	!	!
2C/	et	2C/	et	8c\L	.	.	4e\	-ni-	4g\	-li
.	.	.	.	8G\J	.	.	.	.	.	.
!	!	!	!	!LO:TX:t=P:problem:kreska pseudotaktowa	!	!	!LO:TX:t=P:problem:kreska pseudotaktowa	!	!LO:TX:t=P:problem:kreska pseudotaktowa	!
.	.	.	.	[<4A/	.	.	4cny\	-sunt	4r	.
.	.	.	.	.	.	.	.	.	.	.
4.BB/	ter-	4.BB/	ter-	4A/]	.	.	(8d\L	cae-	2r	.
.	.	.	.	.	.	.	8c\	.	.	.
.	.	.	.	4Gn/	.	.	8d\	.	.	.
8C/	.	8C/	.	.	.	.	8e\J)	.	.	.
!	!	!	!	!	!	!	!LO:TX:t=P:problem:kreska pseudotaktowa	!	!	!
(8D\L	.	8D\L	.	8F/L	.	.	2f\	.	8a\L	Cae-
8E\	.	8E\	.	8G/	.	.	.	.	8g\J	.
8F\)	.	8F\	.	8A/	.	.	.	.	8f\	-li
!LO:TX:t=P:problem:kreska pseudotaktowa	!	!LO:TX:t=P:problem:kreska pseudotaktowa	!	!LO:TX:t=P:problem:kreska pseudotaktowa	!	!	!	!	!LO:TX:t=P:problem:kreska pseudotaktowa	!
8G\J	.	8G\J	.	8B/J	.	.	.	.	8d\	et-
=18-	=18-	=18-	=18-	=18-	=18-	=18-	=18-	=18-	=18-	=18-
(4A\	.	4A\	.	4c\	.	0ryy	8e,<\	-li	4c#X\	-ter-
.	.	.	.	.	.	.	8A\	et	.	.
4F\	.	4F\	.	8f\	-li	.	2d\	ter-	4fn\	.
.	.	.	.	8f\	et	.	.	.	.	.
!	!	!	!	!LO:TX:t=P:problem:kreska pseudotaktowa	!	!	!	!	!	!
4G\)	.	4G\	.	2e\	ter-	.	.	.	4d\	.
!	!	!LO:TX:t=P:problem:kreska pseudotaktowa	!	!	!	!	!LO:TX:a:t=P:problem:# above	!	!	!
4A\	.	4A\	.	.	.	.	4c#X\	.	8a\L	.
!	!	!	!	!	!	!	!	!	!LO:SIC:v:t=custos f#	!
!	!	!	!	!	!	!	!	!	!LO:TX:t=P:problem:kreska pseudotaktowa	!
.	.	.	.	.	.	.	.	.	8g\J	.
!	!	!	!	!	!	!	!LO:LB:g=original	!	!LO:LB:g=original	!
2D,</	-ra	2D,</	-ra	2d\	-ra	.	4d,<\	-ra	4f#X\	-ra
.	.	.	.	.	.	.	4.d\	glo-	4r	.
!	!	!	!	!LO:TX:t=P:problem:kreska pseudotaktowa	!	!	!	!	!LO:TX:t=P:problem:kreska pseudotaktowa	!
4.G\	glo-	4.G\	glo-	2r	.	.	.	.	2d\	glo-
.	.	.	.	.	.	.	8cny\	-ri-	.	.
!	!	!	!	!	!	!	!LO:TX:t=P:problem:kreska pseudotaktowa	!	!	!
.	.	.	.	.	.	.	4B\	-â	.	.
!LO:TX:t=P:problem:kreska pseudotaktowa	!	!LO:TX:t=P:problem:kreska pseudotaktowa	!	!	!	!	!	!	!	!
8F\	-ri-	8F\	-ri-	.	.	.	.	.	.	.
=19-	=19-	=19-	=19-	=19-	=19-	=19-	=19-	=19-	=19-	=19-
2E\	-a	2E,<\	-a	4r	.	0ryy	4r	.	4.g\	.
.	.	.	.	4.e\	glo-	.	4.c\	glo-	.	.
.	.	.	.	.	.	.	.	.	16a\LL	.
.	.	.	.	.	.	.	.	.	16g\JJ	.
!	!	!	!	!	!	!	!	!	!LO:TX:t=P:problem:kreska pseudotaktowa	!
4.F\	glo-	4.F\	glo-	.	.	.	.	.	2fn\	-ria
.	.	.	.	8d\	-ri-	.	8B\	-ri-	.	.
!	!	!	!	!LO:TX:t=P:problem:kreska pseudotaktowa	!	!	!LO:TX:t=P:problem:kreska pseudotaktowa	!	!	!
.	.	.	.	4c\	-a	.	[<4A/	-a	.	.
!LO:TX:t=P:problem:kreska pseudotaktowa	!	!LO:TX:t=P:problem:kreska pseudotaktowa	!	!	!	!	!	!	!	!
8E\	-ri-	8E\	-ri-	.	.	.	.	.	.	.
!LO:LB:g=original	!	!LO:LB:g=original	!	!	!	!	!	!	!	!
2D\	-a	2D,<\	-a	4.d\	glo-	.	4A/]	.	4.f\	Tu-
.	.	.	.	.	.	.	2A/	Tu-	.	.
.	.	.	.	8c\	-ri-	.	.	.	16g\LL	.
.	.	.	.	.	.	.	.	.	16f\JJ	.
!LO:TX:t=P:problem:kreska pseudotaktowa	!	!LO:TX:t=P:problem:kreska pseudotaktowa	!	!LO:LB:g=original	!	!	!	!	!LO:TX:t=P:problem:kreska pseudotaktowa	!
2E\	Tu-	2E\	Tu-	(8B\L	-â	.	.	.	2e\	.
.	.	.	.	8A\J)	.	.	.	.	.	.
!	!	!	!	!LO:TX:t=P:problem:kreska pseudotaktowa	!	!	!LO:TX:t=P:problem:kreska pseudotaktowa	!	!	!
.	.	.	.	4B\	Tu-	.	4G#X/	.	.	.
=20-	=20-	=20-	=20-	=20-	=20-	=20-	=20-	=20-	=20-	=20-
2AA,</	-a	2AA,</	-â	4c,<\	-â.	0ryy	2A/	-â	2e\	-â
.	.	.	.	4e\	O-	.	.	.	.	.
!LO:TX:t=P:problem:kreska pseudotaktowa	!	!LO:TX:t=P:problem:kreska pseudotaktowa	!	!	!	!	!LO:TX:t=P:problem:kreska pseudotaktowa	!	!LO:TX:t=P:problem:kreska pseudotaktowa	!
2A\	O-	2A\	Ho-	(8A\L	-san-	.	2r	.	2r	.
.	.	.	.	8B\	.	.	.	.	.	.
.	.	.	.	8c\)	.	.	.	.	.	.
!	!	!	!	!LO:TX:t=P:problem:kreska pseudotaktowa	!	!	!	!	!	!
.	.	.	.	8d\J	.	.	.	.	.	.
!	!	!	!	!	!	!	!LO:TX:t=P:problem:kreska pseudotaktowa	!	!	!
(8E\L	-san	(8E\L	-san-	4B\	.	.	1r	.	2g\	O-
8F\	.	8F\	.	.	.	.	.	.	.	.
8G\	.	8G\	.	4B,<\	-na	.	.	.	.	.
8A\J)	.	8A\J)	.	.	.	.	.	.	.	.
4F\	.	4F\	.	8A\	in	.	.	.	4a\	-san-
.	.	.	.	8D/	ex-	.	.	.	.	.
!LO:TX:t=P:problem:kreska pseudotaktowa	!	!LO:TX:t=P:problem:kreska pseudotaktowa	!	!LO:TX:t=P:problem:kreska pseudotaktowa	!	!	!	!	!LO:TX:t=P:problem:kreska pseudotaktowa	!
4F\	na	4F\	.	[<4d\	-cel-	.	.	.	4a\	-na
=21-	=21-	=21-	=21-	=21-	=21-	=21-	=21-	=21-	=21-	=21-
8E\	in	8E\	.	4d\]	.	0ryy	4r	.	4g\	in
8AA/	ex-	8AA,</	-na	.	.	.	.	.	.	.
2A\	-cel-	2A\	in	4c\	.	.	4e\	O-	4f\	ex-
!	!	!	!	!LO:TX:t=P:problem:kreska pseudotaktowa	!	!	!	!	!LO:TX:t=P:problem:kreska pseudotaktowa	!
.	.	.	.	[<2B\	.	.	(8B\L	-san-	2e\	-cel-
.	.	.	.	.	.	.	8c\	.	.	.
!LO:TX:t=P:problem:kreska pseudotaktowa	!	!LO:TX:t=P:problem:kreska pseudotaktowa	!	!	!	!	!	!	!	!
4G#X\	.	4G#X\	ex-	.	.	.	8d\)	.	.	.
!	!	!	!	!	!	!	!LO:TX:t=P:problem:kreska pseudotaktowa	!	!	!
.	.	.	.	.	.	.	8e\J	.	.	.
2A\	.	2A\	-cel-	4B\]	.	.	4c\	.	2e,<\	-ſis
.	.	.	.	2A/	.	.	4c,<\	-na	.	.
!LO:TX:t=P:problem:kreska pseudotaktowa	!	!LO:TX:t=P:problem:kreska pseudotaktowa	!	!	!	!	!	!	!LO:TX:t=P:problem:kreska pseudotaktowa	!
2E\	-sis	2E,<\	-sis.	.	.	.	8B\	in	2e\	O-
.	.	.	.	.	.	.	8E/	ex-	.	.
!	!	!	!	!LO:TX:t=P:problem:kreska pseudotaktowa	!	!	!LO:TX:t=P:problem:kreska pseudotaktowa	!	!	!
.	.	.	.	4G/	.	.	[<4e\	-cel-	.	.
=22-	=22-	=22-	=22-	=22-	=22-	=22-	=22-	=22-	=22-	=22-
8BB/L	O-	8BB/L	O-	2F#X,</	-sis	0ryy	4e\]	.	(8d\L	-san-
8C/	.	8C/	.	.	.	.	.	.	8e\J)	.
8D/	.	8D/	.	.	.	.	4d\	.	(8f#X\L	-na
8E/J	.	8E/J	.	.	.	.	.	.	8g\J)	.
!	!	!	!	!	!	!	!LO:TX:t=P:problem:kreska pseudotaktowa	!	!	!
4C/	-san-	4C/	-san-	8A/	in	.	2e\	-sis	4g\	in
.	.	.	.	8E/	ex-	.	.	.	.	.
!LO:TX:t=P:problem:kreska pseudotaktowa	!	!LO:TX:t=P:problem:kreska pseudotaktowa	!	!LO:TX:t=P:problem:kreska pseudotaktowa	!	!	!	!	!LO:TX:t=P:problem:kreska pseudotaktowa	!
4C/	-na	4C/	-na	[<4A/	-cel-	.	.	.	4e\	ex-
8BB/	in	8BB/	in	4A/]	.	.	2r	.	4fn\	-cel-
8BB/	ex-	8BB/	ex-	.	.	.	.	.	.	.
2E\	-cel-	2E\	-cel-	4G/	.	.	.	.	4d\	-s-
!	!	!	!	!LO:TX:t=P:problem:kreska pseudotaktowa	!	!	!LO:TX:t=P:problem:kreska pseudotaktowa	!	!	!
.	.	.	.	2F#X/	.	.	2B\	O-	4cny,</	-sis.
!	!	!LO:TX:t=P:problem:kreska pseudotaktowa	!	!	!	!	!	!	!LO:TX:t=P:problem:kreska pseudotaktowa	!
4D/	.	4D\	.	.	.	.	.	.	4d/	O-
=23-	=23-	=23-	=23-	=23-	=23-	=23-	=23-	=23-	=23-	=23-
2.C/	.	2.C/	.	8G/	.	0ryy	8E/L	-san-	(8c\L	-san-
.	.	.	.	8Fny/	.	.	8F/	.	8d\	.
.	.	.	.	2E/	.	.	8Gny/	.	8e\	.
.	.	.	.	.	.	.	8A/J	.	8fn\J)	.
!	!	!	!	!	!	!	!	!	!LO:LB:g=original	!
.	.	.	.	.	.	.	4Fn/	.	4g\	.
!	!	!	!	!	!	!	!LO:SIC:v:t=custos E	!	!LO:TX:t=P:problem:kreska pseudotaktowa	!
!LO:TX:t=P:problem:kreska pseudotaktowa	!	!LO:TX:t=P:problem:kreska pseudotaktowa	!	!LO:TX:t=P:problem:kreska pseudotaktowa	!	!	!LO:TX:t=P:problem:kreska pseudotaktowa	!	!	!
4BB/	.	4BB/	.	4D/	.	.	4F/	-na	4g\	-na
!	!	!LO:SIC:v:t=custos G	!	!LO:LB:g=original	!	!	!LO:PB:g=original	!	!	!
2C,</	-sis.	2C,</	-sis	4E,</	-sis	.	8E/	in	2g\	in
.	.	.	.	.	.	.	8C/	ex-	.	.
.	.	.	.	8e\	in	.	2c\	-cel-	.	.
.	.	.	.	8e\	ex-	.	.	.	.	.
!LO:TX:t=P:problem:kreska pseudotaktowa	!	!LO:TX:t=P:problem:kreska pseudotaktowa	!	!	!	!	!	!	!LO:TX:t=P:problem:kreska pseudotaktowa	!
!	!	!LO:LB:g=original	!	!	!	!	!	!	!	!
2Gny\	O-	2Gny\	O-	4.d\	-cel-	.	.	.	2g\	ex-
.	.	.	.	.	.	.	8B\L	.	.	.
!	!	!	!	!LO:TX:t=P:problem:kreska pseudotaktowa	!	!	!LO:TX:t=P:problem:kreska pseudotaktowa	!	!	!
.	.	.	.	8e\	.	.	8c\J	.	.	.
=24-	=24-	=24-	=24-	=24-	=24-	=24-	=24-	=24-	=24-	=24-
(8D\L	-san-	(8D\L	-san-	2f\	.	0ryy	2.d\	.	2a\	-cel-
8E\	.	8E\	.	.	.	.	.	.	.	.
8F\	.	8F\	.	.	.	.	.	.	.	.
8G\J)	.	8G\J)	.	.	.	.	.	.	.	.
!	!	!	!	!LO:TX:t=P:problem:kreska pseudotaktowa	!	!	!	!	!LO:TX:t=P:problem:kreska pseudotaktowa	!
4A\	.	4A\	.	2e\	-sis.	.	.	.	2a\	-sis.
!LO:TX:t=P:problem:kreska pseudotaktowa	!	!LO:TX:t=P:problem:kreska pseudotaktowa	!	!	!	!	!LO:TX:t=P:problem:kreska pseudotaktowa	!	!	!
4A\	-in	4A\	-in	.	.	.	4c\	.	.	.
8G\	ex-	8G\	ex-	4r	.	.	2B\	.	4d\	O-
8D\	.	8D\	-cel-	.	.	.	.	.	.	.
2G\	-cel-	2G\	.	4d\	O-	.	.	.	2e\	-san-
!	!	!	!	!	!	!	!LO:TX:t=P:problem:kreska pseudotaktowa	!	!	!
.	.	.	.	(8A\L	-san-	.	2A/	.	.	.
.	.	.	.	8B\	.	.	.	.	.	.
!LO:TX:t=P:problem:kreska pseudotaktowa	!	!LO:TX:t=P:problem:kreska pseudotaktowa	!	!	!	!	!	!	!LO:TX:t=P:problem:kreska pseudotaktowa	!
4F#X\	.	4F#X\	.	8c\	.	.	.	.	4f#X\	-na
!	!	!	!	!LO:TX:t=P:problem:kreska pseudotaktowa	!	!	!	!	!	!
.	.	.	.	8d\J)	.	.	.	.	.	.
=25-	=25-	=25-	=25-	=25-	=25-	=25-	=25-	=25-	=25-	=25-
2G\	.	2G\	.	4B\	.	0ryy	2Gn/	-sis	4d\	in
.	.	.	.	4B,<\	-na	.	.	.	4g\	ex-
!LO:TX:t=P:problem:kreska pseudotaktowa	!	!LO:TX:t=P:problem:kreska pseudotaktowa	!	!	!	!	!LO:TX:t=P:problem:kreska pseudotaktowa	!	!LO:TX:t=P:problem:kreska pseudotaktowa	!
2Fn\	.	2Fn\	.	8A\	in	.	2r	.	2a\	-cel-
.	.	.	.	8D/	ex	.	.	.	.	.
!	!	!	!	!LO:TX:t=P:problem:kreska pseudotaktowa	!	!	!	!	!	!
.	.	.	.	[<4d\	cel-	.	.	.	.	.
4.E,<\	-sis.	4.E,<\	-sis	4d\]	.	.	8G/L	in	4g\	-ſis.
.	.	.	.	.	.	.	8E/J	.	.	.
.	.	.	.	2c\	.	.	2e\	ex-	4r	.
8F\	O-	8F\	O-	.	.	.	.	.	.	.
!	!	!	!	!	!	!	!	!	!LO:TX:t=P:problem:kreska pseudotaktowa	!
4G\	-san-	4G\	-san-	.	.	.	.	.	2r	.
!LO:TX:t=P:problem:kreska pseudotaktowa	!	!LO:TX:t=P:problem:kreska pseudotaktowa	!	!LO:TX:t=P:problem:kreska pseudotaktowa	!	!	!LO:TX:t=P:problem:kreska pseudotaktowa	!	!	!
4G\	-na	4G\	-na	[<4B\	.	.	[<4d\	-cel-	.	.
=26-	=26-	=26-	=26-	=26-	=26-	=26-	=26-	=26-	=26-	=26-
!LO:LB:g=original	!	!	!	!	!	!	!	!	!	!
8E\	in	8E\	in	4B\]	.	0ryy	4d\]	.	4e\	O-
8AA/	ex-	8AA/	ex-	.	.	.	.	.	.	.
2A\	-cel-	2A\	-cel-	4A/	.	.	2c\	.	2fn\	-san-
.	.	.	.	4D/	.	.	.	.	.	.
!LO:TX:t=P:problem:kreska pseudotaktowa	!	!LO:TX:t=P:problem:kreska pseudotaktowa	!	!LO:TX:t=P:problem:kreska pseudotaktowa	!	!	!LO:TX:t=P:problem:kreska pseudotaktowa	!	!LO:TX:t=P:problem:kreska pseudotaktowa	!
4Gn\	.	4Gn\	.	[<4E/	.	.	4B\	.	4g\	-na
8A\L	.	8A\L	.	8E/L]	.	.	2A/	-sis	2e\	in
8G\	.	8G\	.	8G/J	.	.	.	.	.	.
8F\	.	8F\	.	8A/L	.	.	.	.	.	.
8E\J	.	8E\J	.	16B/L	.	.	.	.	.	.
.	.	.	.	16c/JJ	.	.	.	.	.	.
4D/	.	4D/	.	4d\	.	.	4f\	in	4f\	ex-
!	!	!LO:TX:t=P:problem:kreska pseudotaktowa	!	!	!	!	!LO:TX:t=P:problem:kreska pseudotaktowa	!	!	!
4C#X/	.	4C#X/	.	8e\L	.	.	[<4e\	ex-	8a\L	-cel-
!	!	!	!	!LO:TX:t=P:problem:kreska pseudotaktowa	!	!	!	!	!LO:TX:t=P:problem:kreska pseudotaktowa	!
.	.	.	.	8A\J	.	.	.	.	8g\J	.
=27-	=27-	=27-	=27-	=27-	=27-	=27-	=27-	=27-	=27-	=27-
1D	.	1D	.	1A	.	0ryy	4e\]	.	1f	.
.	.	.	.	.	.	.	8d\L	-cel-	.	.
.	.	.	.	.	.	.	8c#X\J	.	.	.
.	.	.	.	.	.	.	2d\	.	.	.
!LO:TX:t=P:problem:kreska pseudotaktowa	!	!LO:TX:t=P:problem:kreska pseudotaktowa	!	!LO:TX:t=P:problem:kreska pseudotaktowa	!	!	!LO:TX:t=P:problem:kreska pseudotaktowa	!	!LO:TX:b:t=Benedictus Vertat(ur)	!
!	!	!	!	!	!	!	!	!	!LO:TX:t=P:problem:kreska pseudotaktowa	!
!LO:N:vis=0	!	!LO:N:vis=0	!	!LO:N:vis=0	!	!	!LO:N:vis=0	!	!LO:N:vis=0	!
1AA;	-sis.	1AA;	-sis.	1A;	-sis.	.	1c#X;>	-sis.	1e;	-sis.
=28-	=28-	=28-	=28-	=28-	=28-	=28-	=28-	=28-	=28-	=28-
*M2/1	*	*M2/1	*	*M2/1	*	*	*M2/1	*	*M2/1	*
*met(C|)	*	*met(C|)	*	*met(C|)	*	*	*met(C|)	*	*met(C|)	*
!	!	!LO:TX:t=P:problem:kreska pseudotaktowa	!	!	!	!	!	!	!LO:PB:g=original	!
!	!	!LO:PB:g=original	!	!LO:PB:g=original	!	!	!	!	!LO:TX:t=P:problem:kreska pseudotaktowa	!
1.A	Be-	[<1A	Be-	00r	.	0ryy	00r	.	1r	.
!	!	!LO:N:xstem:cue	!	!	!	!	!	!	!	!
.	.	2A]	.	.	.	.	.	.	2r	.
!LO:TX:t=P:problem:kreska pseudotaktowa	!	!LO:TX:t=P:problem:kreska pseudotaktowa	!	!	!	!	!	!	!	!
2E\	-ne-	2E\	-ne-	.	.	.	.	.	1g\	Be-
=29-	=29-	=29-	=29-	=29-	=29-	=29-	=29-	=29-	=29-	=29-
!	!	!LO:TX:t=P:problem:kreska pseudotaktowa	!	!	!	!	!	!	!	!
1G	-dic-	1G	-dic-	.	.	0ryy	.	.	.	.
.	.	.	.	.	.	.	.	.	4d\	-ne-
!	!	!	!	!	!	!	!	!	!LO:TX:t=P:problem:kreska pseudotaktowa	!
.	.	.	.	.	.	.	.	.	4e\	.
2D,<\	-t(us)	2D,<\	-tus	.	.	.	.	.	2fn\	-di
!	!	!LO:TX:t=P:problem:kreska pseudotaktowa	!	!	!	!	!	!	!	!
2E\	qui	2E\	Qui	.	.	.	.	.	4e\	.
!	!	!	!	!	!	!	!	!	!LO:TX:t=P:problem:kreska pseudotaktowa	!
.	.	.	.	.	.	.	.	.	4d\	.
=30-	=30-	=30-	=30-	=30-	=30-	=30-	=30-	=30-	=30-	=30-
!LO:TX:t=P:problem:kreska pseudotaktowa	!	!LO:TX:t=P:problem:kreska pseudotaktowa	!	!	!	!	!LO:TX:t=P:problem:kreska pseudotaktowa	!	!	!
1F	ve-	1F	ve-	00r	.	0ryy	1r	.	2c,</	-ctus
.	.	.	.	.	.	.	.	.	4c/	qui
!	!	!	!	!	!	!	!	!	!LO:TX:t=P:problem:kreska pseudotaktowa	!
.	.	.	.	.	.	.	.	.	4d/	.
2E,<\	-nit	2E,<\	-nit	.	.	.	1.e	Be-	2e\	ve-
!	!	!LO:TX:t=P:problem:kreska pseudotaktowa	!	!	!	!	!	!	!LO:TX:t=P:problem:kreska pseudotaktowa	!
2E\	qui	2E\	Qui	.	.	.	.	.	[<2g\	.
=31-	=31-	=31-	=31-	=31-	=31-	=31-	=31-	=31-	=31-	=31-
4Cny/	.	4Cny/	.	.	.	0ryy	.	.	4g\]	.
8D/L	.	8D/L	.	.	.	.	.	.	8f\L	.
8E/J	.	8E/J	.	.	.	.	.	.	8e\J	.
!	!	!	!	!	!	!	!LO:TX:t=P:problem:kreska pseudotaktowa	!	!	!
1F\	ve-	1F\	ve-	.	.	.	2A/	-ne-	4f\	.
.	.	.	.	.	.	.	.	.	8e\L	.
!	!	!	!	!	!	!	!	!	!LO:TX:t=P:problem:kreska pseudotaktowa	!
.	.	.	.	.	.	.	.	.	8d\J	.
.	.	.	.	.	.	.	1cny	-dic-	2a\	.
4E\	.	4E\	.	.	.	.	.	.	4g\	.
!LO:TX:t=P:problem:kreska pseudotaktowa	!	!LO:TX:t=P:problem:kreska pseudotaktowa	!	!	!	!	!	!	!LO:TX:t=P:problem:kreska pseudotaktowa	!
4D\	.	4D\	.	.	.	.	.	.	4f\	.
=32-	=32-	=32-	=32-	=32-	=32-	=32-	=32-	=32-	=32-	=32-
!	!	!	!	!LO:TX:t=P:problem:kreska pseudotaktowa	!	!	!	!	!	!
2E\	.	2E\	.	00r	.	0ryy	2G/	-t(us)	2g\	.
!	!	!LO:TX:t=P:problem:kreska pseudotaktowa	!	!	!	!	!LO:TX:t=P:problem:kreska pseudotaktowa	!	!LO:TX:t=P:problem:kreska pseudotaktowa	!
2F#X\	.	2F#X\	.	.	.	.	2A/	qui	[<2d\	.
!	!	!	!	!	!	!	!LO:LB:g=original	!	!	!
4G\	.	4G\	.	.	.	.	1B	Ve-	4d\]	.
4Fny\	.	4Fny\	.	.	.	.	.	.	4f\	.
4E\	.	4E\	.	.	.	.	.	.	4g\	.
!	!	!LO:TX:t=P:problem:kreska pseudotaktowa	!	!	!	!	!	!	!LO:TX:t=P:problem:kreska pseudotaktowa	!
4D\	.	4D\	.	.	.	.	.	.	4f\	.
=33-	=33-	=33-	=33-	=33-	=33-	=33-	=33-	=33-	=33-	=33-
2.E\	.	2.E\	.	.	.	0ryy	4G/	.	4e\	.
.	.	.	.	.	.	.	8A/L	.	2g\	.
.	.	.	.	.	.	.	8B/J	.	.	.
!	!	!	!	!	!	!	!LO:TX:t=P:problem:kreska pseudotaktowa	!	!	!
.	.	.	.	.	.	.	[<2c\	.	.	.
!LO:TX:t=P:problem:kreska pseudotaktowa	!	!LO:TX:t=P:problem:kreska pseudotaktowa	!	!	!	!	!	!	!LO:TX:t=P:problem:kreska pseudotaktowa	!
4D\	.	4D\	.	.	.	.	.	.	4f\	.
4E\	.	4E\	.	.	.	.	2.c\]	.	4g\	.
4F\	.	4F\	.	.	.	.	.	.	8f\L	.
.	.	.	.	.	.	.	.	.	8e\J	.
1G\	.	1G\	.	.	.	.	.	.	4d\	.
.	.	.	.	.	.	.	8B\L	.	4c\	.
!	!	!	!	!	!	!	!LO:TX:t=P:problem:kreska pseudotaktowa	!	!	!
.	.	.	.	.	.	.	8A\J	.	.	.
=34-	=34-	=34-	=34-	=34-	=34-	=34-	=34-	=34-	=34-	=34-
.	.	.	.	1.e	Be-	0ryy	2B,<\	-nit	2B/	-nit
!LO:TX:t=P:problem:kreska pseudotaktowa	!	!LO:TX:t=P:problem:kreska pseudotaktowa	!	!	!	!	!LO:TX:t=P:problem:kreska pseudotaktowa	!	!LO:TX:t=P:problem:kreska pseudotaktowa	!
2E\	.	2E\	.	.	.	.	2G/	qui	2r	.
!	!	!	!	!	!	!	!	!	!LO:LB:g=original	!
!	!	!	!	!	!	!	!	!	!LO:TX:t=P:problem:kreska pseudotaktowa	!
4A\	.	4A\	.	.	.	.	2c\	Ve-	0r	.
8E\L	.	8E\L	.	.	.	.	.	.	.	.
8F\J	.	8F\J	.	.	.	.	.	.	.	.
!	!	!	!	!LO:TX:t=P:problem:kreska pseudotaktowa	!	!	!	!	!	!
1G\	.	1G\	.	2B\	-ne-	.	1B\	.	.	.
=35-	=35-	=35-	=35-	=35-	=35-	=35-	=35-	=35-	=35-	=35-
!	!	!	!	!LO:TX:t=P:problem:kreska pseudotaktowa	!	!	!	!	!	!
.	.	.	.	1d	-di-	0ryy	.	.	.	.
!LO:TX:a:t=P:problem:# above	!	!	!	!	!	!	!	!	!	!
4F#X\	.	4F#X\	.	.	.	.	4A/	.	.	.
!LO:SIC:v:t=custos F#	!	!LO:TX:t=P:problem:kreska pseudotaktowa	!	!	!	!	!LO:TX:t=P:problem:kreska pseudotaktowa	!	!	!
4E\	.	4E\	.	.	.	.	4G/	.	.	.
!LO:LB:g=original	!	!LO:TX:a:t=P:problem:# above	!	!	!	!	!	!	!	!
4F#X\	.	4F#X\	.	2A\	-ctus	.	4A/	.	2r	.
4D/	.	4D/	.	.	.	.	4F#X/	.	.	.
!	!	!	!	!LO:TX:t=P:problem:kreska pseudotaktowa	!	!	!	!	!	!
4Cn/	.	4Cn/	.	2B\	qui	.	2G#X/	.	4e\	Qui
!LO:TX:t=P:problem:kreska pseudotaktowa	!	!LO:TX:t=P:problem:kreska pseudotaktowa	!	!	!	!	!	!	!LO:TX:t=P:problem:kreska pseudotaktowa	!
4BB/	.	4BB/	.	.	.	.	.	.	4d\	.
=36-	=36-	=36-	=36-	=36-	=36-	=36-	=36-	=36-	=36-	=36-
!	!	!LO:LB:g=original	!	!LO:TX:t=P:problem:kreska pseudotaktowa	!	!	!	!	!	!
(4AA/	.	4AA/	.	1c	ve-	0ryy	1A	.	(4c\	ve-
4BB/	.	4BB/	.	.	.	.	.	.	4d\	.
4C/	.	4C/	.	.	.	.	.	.	4e\)	.
!LO:TX:t=P:problem:kreska pseudotaktowa	!	!LO:TX:t=P:problem:kreska pseudotaktowa	!	!	!	!	!	!	!LO:TX:t=P:problem:kreska pseudotaktowa	!
4D/)	.	4D/	.	.	.	.	.	.	4f\	.
!LO:TX:t=P:problem:kreska pseudotaktowa	!	!LO:TX:t=P:problem:kreska pseudotaktowa	!	!	!	!	!LO:TX:t=P:problem:kreska pseudotaktowa	!	!	!
1E	.	1E	.	2B,<\	-nit	.	1G#X,<	-nit,	2e,<\	-nit
!	!	!	!	!LO:TX:t=P:problem:kreska pseudotaktowa	!	!	!	!	!LO:TX:t=P:problem:kreska pseudotaktowa	!
.	.	.	.	2B\	in	.	.	.	2g#X\	qui
=37-	=37-	=37-	=37-	=37-	=37-	=37-	=37-	=37-	=37-	=37-
2E,<\	-nit	2E,<\	-nit	4G/	No-	0ryy	2r	.	2e\	ve-
.	.	.	.	8A/L	.	.	.	.	.	.
.	.	.	.	8B/J	.	.	.	.	.	.
!	!	!	!	!	!	!	!LO:TX:t=P:problem:kreska pseudotaktowa	!	!	!
4C/	qui	4C/	Qui	1c\	.	.	2e\	Qui	4gn\	.
8D/L	.	8D/L	.	.	.	.	.	.	8f\L	.
!LO:TX:t=P:problem:kreska pseudotaktowa	!	!LO:TX:t=P:problem:kreska pseudotaktowa	!	!	!	!	!	!	!LO:TX:t=P:problem:kreska pseudotaktowa	!
8E/J	.	8E/J	.	.	.	.	.	.	8e\J	.
!	!	!LO:TX:t=P:problem:kreska pseudotaktowa	!	!	!	!	!	!	!	!
1Fny	ve-	1Fny	ve-	.	.	.	4c\	Ve-	2c/	.
.	.	.	.	.	.	.	8d\L	.	.	.
.	.	.	.	.	.	.	8e\J	.	.	.
!	!	!	!	!	!	!	!	!	!LO:TX:t=P:problem:kreska pseudotaktowa	!
.	.	.	.	4B\	.	.	2.f\	.	2f\	.
!	!	!	!	!LO:TX:t=P:problem:kreska pseudotaktowa	!	!	!	!	!	!
.	.	.	.	4A\	.	.	.	.	.	.
=38-	=38-	=38-	=38-	=38-	=38-	=38-	=38-	=38-	=38-	=38-
!LO:TX:t=P:problem:kreska pseudotaktowa	!	!	!	!	!	!	!	!	!	!
0G	.	0G	.	2B\	.	0ryy	.	.	2d\	.
.	.	.	.	.	.	.	4e\	.	.	.
!	!	!	!	!	!	!	!	!	!LO:TX:t=P:problem:kreska pseudotaktowa	!
.	.	.	.	2.c\	.	.	4d\	.	2g\	.
!	!	!	!	!	!	!	!LO:TX:t=P:problem:kreska pseudotaktowa	!	!	!
.	.	.	.	.	.	.	4c\	.	.	.
.	.	.	.	.	.	.	1d	.	2d\	.
.	.	.	.	8B\L	.	.	.	.	.	.
.	.	.	.	8A\J	.	.	.	.	.	.
!	!	!	!	!LO:TX:t=P:problem:kreska pseudotaktowa	!	!	!	!	!	!
.	.	.	.	2B\	.	.	.	.	1g,<\	-nit
=39-	=39-	=39-	=39-	=39-	=39-	=39-	=39-	=39-	=39-	=39-
2C,</	-nit	2C,</	-nit	4c\	.	0ryy	1e,<	-nit	.	.
.	.	.	.	4G/	.	.	.	.	.	.
!LO:TX:t=P:problem:kreska pseudotaktowa	!	!LO:TX:t=P:problem:kreska pseudotaktowa	!	!	!	!	!	!	!LO:TX:t=P:problem:kreska pseudotaktowa	!
2C/	in	2C/	in	2.c\	.	.	.	.	2e\	in
2.F\	No-	2.F\	No-	.	.	.	2c\	in	2.a\	No-
.	.	.	.	4B\	-mi-	.	.	.	.	.
!	!	!	!	!LO:TX:t=P:problem:kreska pseudotaktowa	!	!	!	!	!	!
.	.	.	.	[<2A\	-ni	.	4.f\	No-	.	.
!	!	!LO:TX:t=P:problem:kreska pseudotaktowa	!	!	!	!	!	!	!	!
4E\	-mi-	4E\	-mi-	.	.	.	.	.	4g\	-mi-
!	!	!	!	!	!	!	!LO:TX:t=P:problem:kreska pseudotaktowa	!	!	!
.	.	.	.	.	.	.	8f\	-mi-	.	.
=40-	=40-	=40-	=40-	=40-	=40-	=40-	=40-	=40-	=40-	=40-
!LO:TX:t=P:problem:kreska pseudotaktowa	!	!LO:TX:t=P:problem:kreska pseudotaktowa	!	!	!	!	!	!	!LO:TX:t=P:problem:kreska pseudotaktowa	!
1D	-ne	1D,<	-ne	2A\]	.	0ryy	2d,<\	-ne	1f	-ne
.	.	.	.	4B\	Do-	.	4d\	Do-	.	.
!	!	!	!	!LO:SIC:v:t=custos G#	!	!	!LO:TX:t=P:problem:kreska pseudotaktowa	!	!	!
!	!	!	!	!LO:TX:t=P:problem:kreska pseudotaktowa	!	!	!	!	!	!
.	.	.	.	4A\	.	.	[<4c\	.	.	.
1.E	Do-	1.E	Do-	2G#X/	.	.	2.c\]	.	1.e	Do-
.	.	.	.	1A\	.	.	.	.	.	.
.	.	.	.	.	.	.	8B\L	.	.	.
.	.	.	.	.	.	.	8A\J	.	.	.
=41-	=41-	=41-	=41-	=41-	=41-	=41-	=41-	=41-	=41-	=41-
.	.	.	.	.	.	0ryy	2.B\	.	.	.
!	!	!	!	!LO:LB:g=original	!	!	!	!	!	!
2E\	-mi-	2E\	-mi-	2G#X/	-mi-	.	.	.	2e\	-mi-
.	.	.	.	.	.	.	4B\	-mi-	.	.
!LO:TX:t=P:problem:kreska pseudotaktowa	!	!LO:TX:t=P:problem:kreska pseudotaktowa	!	!LO:TX:t=P:problem:kreska pseudotaktowa	!	!	!LO:TX:a:t=P:problem:# above	!	!LO:TX:t=P:problem:kreska pseudotaktowa	!
!LO:N:vis=0	!	!LO:N:vis=0	!	!LO:N:vis=0	!	!	!LO:N:vis=0	!	!LO:N:vis=0	!
1AA;	-ni.	1AA;	-ni.	1A;>	-ni.	.	1c#X;;	-ni.	1e;	-ni.
=42-	=42-	=42-	=42-	=42-	=42-	=42-	=42-	=42-	=42-	=42-
*M3/2	*	*M3/2	*	*M3/2	*	*	*M3/2	*	*M3/2	*
!	!	!	!	!	!	!	!LO:LB:g=original	!	!LO:LB:g=original	!
2E\	O-	2E\	O-	2G#X/	O-	1.ryy	2B\	O-	2e\	O-
2A\	-san-	2A\	-san-	2A\	-san-	.	2cny\	-san-	2e\	-san-
!LO:TX:t=P:problem:kreska pseudotaktowa	!	!LO:TX:t=P:problem:kreska pseudotaktowa	!	!LO:TX:t=P:problem:kreska pseudotaktowa	!	!	!LO:TX:t=P:problem:kreska pseudotaktowa	!	!LO:TX:t=P:problem:kreska pseudotaktowa	!
2G\	-na	2G\	-na	2B\	-na	.	2d\	-na	2g\	-na
=43-	=43-	=43-	=43-	=43-	=43-	=43-	=43-	=43-	=43-	=43-
!	!	!	!	!LO:TX:t=P:problem:kreska pseudotaktowa	!	!	!LO:TX:t=P:problem:kreska pseudotaktowa	!	!LO:TX:t=P:problem:kreska pseudotaktowa	!
1.C	in	1.C	in	1.c	in	1.ryy	1.e	in	1.g	in
=44-	=44-	=44-	=44-	=44-	=44-	=44-	=44-	=44-	=44-	=44-
2GG/	ex-	2GG/	ex-	2B\	ex-	1.ryy	1d	ex-	2e\	ex-
!	!	!	!	!	!	!	!	!	!LO:TX:t=P:problem:kreska pseudotaktowa	!
1AA	-cel-	1AA	-cel-	1A	-cel-	.	.	.	1e	-cel-
!	!	!	!	!	!	!	!LO:TX:t=P:problem:kreska pseudotaktowa	!	!	!
.	.	.	.	.	.	.	2c\	-cel-	.	.
=45-	=45-	=45-	=45-	=45-	=45-	=45-	=45-	=45-	=45-	=45-
!LO:TX:t=P:problem:kreska pseudotaktowa	!	!LO:TX:t=P:problem:kreska pseudotaktowa	!	!LO:TX:t=P:problem:kreska pseudotaktowa	!	!	!LO:TX:t=P:problem:kreska pseudotaktowa	!	!LO:TX:t=P:problem:kreska pseudotaktowa	!
1.E	-ſis	1.E,<	-ſis	1.G#X	-ſis	1.ryy	1.B	-ſis	1.e,<	-ſis
=46-	=46-	=46-	=46-	=46-	=46-	=46-	=46-	=46-	=46-	=46-
*	*ij	*	*ij	*	*	*	*	*ij	*	*
2E\	O-	2E\	O-	2G#X/	O-	1.ryy	2B\	O-	2e\	O-
2A\	-san-	2A\	-san-	2A/	-san-	.	2c\	-san-	2e\	-san-
!	!	!LO:TX:t=P:problem:kreska pseudotaktowa	!	!LO:TX:t=P:problem:kreska pseudotaktowa	!	!	!LO:TX:t=P:problem:kreska pseudotaktowa	!	!LO:TX:t=P:problem:kreska pseudotaktowa	!
2G\	-na	2G\	-na	2B\	-na	.	2d\	-na	2g\	-na
=47-	=47-	=47-	=47-	=47-	=47-	=47-	=47-	=47-	=47-	=47-
!LO:TX:t=P:problem:kreska pseudotaktowa	!	!	!	!LO:TX:t=P:problem:kreska pseudotaktowa	!	!	!LO:TX:t=P:problem:kreska pseudotaktowa	!	!LO:TX:t=P:problem:kreska pseudotaktowa	!
1.C	in	1.C	in	1.c	in	1.ryy	1.e	in	1.g	in
=48-	=48-	=48-	=48-	=48-	=48-	=48-	=48-	=48-	=48-	=48-
2GG/	ex-	2GG/	ex-	2B\	ex-	1.ryy	2d\	ex-	2e\	ex-
1AA	-cel-	1AA	-cel-	1A	-cel-	.	1c	-cel-	1e	-cel-
=49-	=49-	=49-	=49-	=49-	=49-	=49-	=49-	=49-	=49-	=49-
!LO:TX:t=P:problem:kreska pseudotaktowa	!	!LO:TX:t=P:problem:kreska pseudotaktowa	!	!LO:TX:t=P:problem:kreska pseudotaktowa	!	!	!LO:TX:t=P:problem:kreska pseudotaktowa	!	!LO:TX:t=P:problem:kreska pseudotaktowa	!
!LO:N:vis=0	!	!LO:N:vis=0	!	!LO:N:vis=0.	!	!	!LO:N:vis=0.	!	!LO:N:vis=0	!
1.E;	-ſis	1.E;	-ſis	1.G#X;	-ſis.	1.ryy	1.B;	-ſis	1.e;	-ſis.
*	*Xij	*	*Xij	*	*	*	*	*Xij	*	*
=-	=-	=-	=-	=-	=-	=-	=-	=-	=-	=-
*-	*-	*-	*-	*-	*-	*-	*-	*-	*-	*-
!!!system-decoration: [(s1,s2,s3,s4,s5,s6)]
!!!RDF**kern: < = below
!!!RDF**kern: > = above
!!!AIN: 1 alto 2 empty 3 tenor
!!!ENC: Marta Chmielewska
!!!END: 2021-07-27
!!!ENC: Berenika Jozajtis
!!!END: 2021-07-04
